X:4
T:Rid\'es d'octobre 2003
C:Traditionnel breton et J. HUBY (NEKETA)
I:Rid\'es 6 T
Q:1/4=164
P:D4
M:3/4
L:1/8
K:Am
P:D
%%%MIDI gchord fccfcf
%%MIDI gchord cffcfc
%%MIDI gchord ccffcf
%%MIDI bassprog 36
%%MIDI chordprog 29
%%MIDI program 21
%%MIDI bassvol 127
|: "Am"AG AB c2 |"G"Bc dc B2 |"F"AG AB c2 |"G"Bc dc B2 :|
|: "Am"c2 A2 "Em"GA |Bd cB "Am"AB |"F"c2 A2 "Em"GA |"G"Bd "F"c"G"B "Am"A2 :|
